assets/img/icons/skills/js.svg

<svg width="65" height="65" viewBox="0 0 65 65" fill="none" xmlns="http://www.w3.org/2000/svg">
<path d="M0 0H65V65H0V0Z" fill="#F7DF1E"/>
<path d="M17.0909 54.3188L22.0651 51.3084C23.0247 53.0099 23.8977 54.4495 25.9916 54.4495C27.9988 54.4495 29.2642 53.6643 29.2642 50.6104V29.8413H35.3726V50.6967C35.3726 57.0234 31.6641 59.9031 26.2535 59.9031C21.367 59.9031 18.5306 57.3723 17.0908 54.3183" fill="black"/>
<path d="M38.6905 53.6641L43.6641 50.7844C44.9734 52.9226 46.6751 54.4932 49.6855 54.4932C52.2165 54.4932 53.8304 53.2278 53.8304 51.4825C53.8304 49.3881 52.1725 48.6463 49.38 47.425L47.8533 46.7701C43.4462 44.8943 40.5228 42.5382 40.5228 37.564C40.5228 32.9826 44.0133 29.4919 49.4675 29.4919C53.3508 29.4919 56.1432 30.8447 58.1501 34.3789L53.3941 37.433C52.3469 35.557 51.2128 34.8153 49.4676 34.8153C47.6787 34.8153 46.5441 35.9497 46.5441 37.433C46.5441 39.2656 47.6787 40.0075 50.2963 41.142L51.8233 41.7964C57.0155 44.0218 59.939 46.2904 59.939 51.3952C59.939 56.8932 55.6195 59.9035 49.8165 59.9035C44.1444 59.9035 40.4792 57.1984 38.6906 53.6641" fill="black"/>
</svg>

<svg width="65" height="65" fill="none" xmlns="http://www.w3.org/2000/svg"><path d="M0 0h65v65H0V0Z" fill="#F7DF1E"/><path d="m17.09 54.319 4.975-3.01c.96 1.7 1.833 3.14 3.927 3.14 2.007 0 3.272-.785 3.272-3.839V29.841h6.109v20.856c0 6.326-3.709 9.206-9.12 9.206-4.886 0-7.722-2.53-9.162-5.585m21.599-.654 4.974-2.88c1.31 2.139 3.011 3.71 6.021 3.71 2.532 0 4.145-1.266 4.145-3.011 0-2.095-1.657-2.837-4.45-4.058l-1.527-.655c-4.407-1.876-7.33-4.232-7.33-9.206 0-4.581 3.49-8.072 8.944-8.072 3.884 0 6.676 1.353 8.683 4.887l-4.756 3.054c-1.047-1.876-2.181-2.618-3.926-2.618-1.79 0-2.924 1.135-2.924 2.618 0 1.833 1.135 2.575 3.752 3.709l1.527.654c5.193 2.226 8.116 4.494 8.116 9.6 0 5.497-4.32 8.508-10.123 8.508-5.672 0-9.337-2.706-11.125-6.24" fill="#000"/></svg>
